!!!OTL: Der maechtigste Koenig im Luftrevier ist des Sturmes gewaltiger Aar
!!!ARE: Europa, Mitteleuropa, Deutschland, Hessen, Hof
!!!SCT: D0203
!!!YEM: Copyright 1995, estate of Helmut Schaffrath.
**kern
*ICvox
*Ivox
*M4/4
*k[b-]
*F:
=1
{4c
=2
4f
8.f
16f
4f
8f
8g
=3
4a
8.a
16g
4f}
{8.a
16a
=4
4g
8.c
16cc
4g
8.a
16g
=5
2f
4r}
{4c
=6
4f
8.f
16f
4f
8f
8g
=7
4a
8.a
16g
4f}
{4a
=8
4g
8.c
16c
4g
8a
8g
=9
2f
4r}
{8a
8b-
=10
4cc
4a
4a
8f
8a
=11
4cc
4a
4a}
{8f
8a
=12
4cc
8a
8f
4cc
8a
8f
=13
2cc
4r}
{8.c
16c
=14
4.a
8e
4g
8f
8d
=15
2c
4r}
{4c
=16
4d
8g
8f
4e
8a
8g
=17
2f
8r}
{8f
8f
8a
=18
[4cc
4.cc]
8b-
8a
8g
=19
[4f
4.f]}
{8a
8g
8f
=20
[4g
4.g]
8b-
8a
8g
=21
4a
4dd
4cc}
{4c
=22
4.a
8e
4g
8f
8d
=23
2c
4r}
{4c
=24
4d
8g
8f
4e
8a
8g
=25
2.f}
==
!!!AGN: Wandervogel - Lied
!! Inzipit = Variante zum Lied
!!!ONB: ESAC (Essen Associative Code) Database: DVA
!!!AMT: simple quadruple
!!!AIN: vox
!!!EED: Helmut Schaffrath
!!!EEV: 1.0
*-
